src/lib/packages/icons/src/assets/filled/microsoft.svg

<svg xmlns="http://www.w3.org/2000/svg" width="24" height="24" fill="none"><path fill="currentColor" d="M3 3h8.5v8.5H3V3Zm9.5 8.5H21V3h-8.5v8.5ZM3 21h8.5v-8.5H3V21Zm9.5 0H21v-8.5h-8.5V21Z"/></svg>

<svg width="24" height="24" viewBox="0 0 24 24" fill="none" xmlns="http://www.w3.org/2000/svg">
<path d="M3 3H11.5V11.5H3V3ZM12.5 11.5H21V3H12.5V11.5ZM3 21H11.5V12.5H3V21ZM12.5 21H21V12.5H12.5V21Z" fill="currentColor"/>
</svg>
